X: 42143
T: Watchmaker's Cloth
R: reel
M: 4/4
K: Gminor
d3B G2FD|CFDC B,DG,A,|B,3D FDFG|BcdB cdgf|
dB (3BBB GBFD|CFDC CB,G,A,|B,3D FDFG|BcdB c3g|
gfdc dcBA|BG (3GGF GFDC|B,D (3G,G,G, B,DFD|F/F/GBd cdgf|
dB (3BBB GBFD|CFDC (3B,B,B, G,A,|B,3D FDFG|BcdB cdfd||
|:fg2 g2 fdB|cBcd cBGF|G3 g2 fdc|c2cB cdfa|
fg2 g2 fdB|cBcd cBG2|zbaf gfd2|1 gfdc cdfd:|2 gfdc cdgf||

